courses/formik_basics_empty.svg

<svg height="250" viewBox="0 0 500 250" width="500" xmlns="http://www.w3.org/2000/svg" xmlns:xlink="http://www.w3.org/1999/xlink"><defs><path id="a" d="m0 0h500v250h-500z"/><mask id="b" fill="#fff"><use fill="#fff" fill-rule="evenodd" xlink:href="#a"/></mask></defs><g fill="none" fill-rule="evenodd"><use fill="#151515" xlink:href="#a"/><g mask="url(#b)" opacity=".5"><g transform="translate(201 19)"><circle cx="269.529" cy="237.628" fill="#00d8ff" fill-rule="nonzero" r="50.167"/><g fill="none" stroke="#00d8ff" stroke-width="24"><path d="m269.529 135.628c67.356 0 129.928 9.665 177.107 25.907 56.844 19.569 91.794 49.233 91.794 76.093 0 27.991-37.041 59.503-98.083 79.728-46.151 15.291-106.879 23.272-170.818 23.272-65.554 0-127.63-7.492-174.29-23.441-59.046-20.182-94.611-52.103-94.611-79.559 0-26.642 33.37-56.076 89.415-75.616 47.355-16.509 111.472-26.384 179.486-26.384z"/><path d="m180.736 186.922c33.649-58.348 73.281-107.724 110.92-140.48 45.35-39.466 88.507-54.923 111.775-41.505 24.248 13.983 33.042 61.814 20.067 124.796-9.81 47.618-33.234 104.212-65.176 159.601-32.749 56.788-70.25 106.819-107.377 139.272-46.981 41.068-92.4 55.929-116.185 42.213-23.079-13.31-31.906-56.921-20.834-115.233 9.355-49.27 32.832-109.745 66.81-168.664z"/><path d="m180.821 289.482c-33.746-58.292-56.731-117.287-66.312-166.255-11.544-58.999-3.382-104.109 19.864-117.566 24.224-14.024 70.055 2.244 118.14 44.94 36.356 32.28 73.688 80.837 105.723 136.173 32.844 56.733 57.461 114.209 67.036 162.582 12.117 61.213 2.309 107.984-21.453 121.74-23.057 13.348-65.249-.784-110.239-39.499-38.013-32.711-78.682-83.253-112.759-142.115z"/></g></g></g><path d="m36.0897013 0 8.9102987 5.06302674-35.08970127 19.93697326-8.91029873-5.0621186zm8.9102987 6-34.9990774 19.9214325-.0009226 10.0785675 34.9990774-19.9205189v-10.0794811zm-14 20-20.9981418 11.8956044-.0018582 10.1043956 20.9981418-11.8974359zm-8 16-12.9981418 7.1671822-.0018582 9.8328178 12.9981418-7.1671822zm-22.99630921-21 8.99630921 5.0525841-.0027681 9.9474159-8.9972319-5.0516827zm.0000452 12 8.99626401 5.0117668-.00373599 9.9882332-8.99626401-5.0108617zm-.00000155 11 8.99626556 5.1221824-.00373444 10.8778176-8.99626556-5.1221824zm19.78354136 33-8.7872758-5.1092415 34.2127242-19.8907585 8.7872758 5.1092415zm-9.7872758-6 34.999076-19.911294.000924-10.088706-34.999076 19.911294zm14-20 20.9990709-11.8974359.0009291-10.1025641-20.9981418 11.8956044zm8-16 12.9981418-7.1671822.0018582-9.8328178-12.9981418 7.1671822zm22.9963092 21-8.9963092-5.0525841.0027681-9.9474159 8.9972319 5.0525841zm-.0000448-12-8.9962644-5.0117668.0037356-9.9882332 8.9962644 5.0108617zm.0000012-11.0009362-8.9962656-5.184483.0037344-10.8145808 8.9962656 5.1854192-.0037344 10.8145808z" fill="#fff" fill-rule="nonzero" transform="translate(14 9)"/></g></svg>

<svg width="500px" height="250px" viewBox="0 0 500 250" version="1.1" xmlns="http://www.w3.org/2000/svg" xmlns:xlink="http://www.w3.org/1999/xlink">
    <defs>
        <rect id="path-1" x="0" y="0" width="500" height="250"></rect>
    </defs>
    <g id="Page-1" stroke="none" stroke-width="1" fill="none" fill-rule="evenodd">
        <g id="Formik-React">
            <g id="react">
                <mask id="mask-2" fill="white">
                    <use xlink:href="#path-1"></use>
                </mask>
                <use id="Mask" fill="#151515" xlink:href="#path-1"></use>
                <g opacity="0.5" mask="url(#mask-2)">
                    <g transform="translate(201.000000, 19.000000)">
                        <circle id="Oval" stroke="none" fill="#00D8FF" fill-rule="nonzero" cx="269.529" cy="237.628" r="50.167"></circle>
                        <path d="M269.529,135.628 C336.885,135.628 399.457,145.293 446.636,161.535 C503.48,181.104 538.43,210.768 538.43,237.628 C538.43,265.619 501.389,297.131 440.347,317.356 C394.196,332.647 333.468,340.628 269.529,340.628 C203.975,340.628 141.899,333.136 95.239,317.187 C36.193,297.005 0.628,265.084 0.628,237.628 C0.628,210.986 33.998,181.552 90.043,162.012 C137.398,145.503 201.515,135.628 269.529,135.628 Z" id="Path" stroke="#00D8FF" stroke-width="24" fill="none"></path>
                        <path d="M180.736,186.922 C214.385,128.574 254.017,79.198 291.656,46.442 C337.006,6.976 380.163,-8.481 403.431,4.937 C427.679,18.92 436.473,66.751 423.498,129.733 C413.688,177.351 390.264,233.945 358.322,289.334 C325.573,346.122 288.072,396.153 250.945,428.606 C203.964,469.674 158.545,484.535 134.76,470.819 C111.681,457.509 102.854,413.898 113.926,355.586 C123.281,306.316 146.758,245.841 180.736,186.922 Z" id="Path" stroke="#00D8FF" stroke-width="24" fill="none"></path>
                        <path d="M180.821,289.482 C147.075,231.19 124.09,172.195 114.509,123.227 C102.965,64.228 111.127,19.118 134.373,5.661 C158.597,-8.363 204.428,7.905 252.513,50.601 C288.869,82.881 326.201,131.438 358.236,186.774 C391.08,243.507 415.697,300.983 425.272,349.356 C437.389,410.569 427.581,457.34 403.819,471.096 C380.762,484.444 338.57,470.312 293.58,431.597 C255.567,398.886 214.898,348.344 180.821,289.482 Z" id="Path" stroke="#00D8FF" stroke-width="24" fill="none"></path>
                    </g>
                </g>
            </g>
            <g id="formik" transform="translate(14.000000, 9.000000)" fill="#FFFFFF" fill-rule="nonzero">
                <path d="M36.0897013,0 L45,5.06302674 L9.91029873,25 L1,19.9378814 L36.0897013,0 Z M45,6 L10.0009226,25.9214325 L10,36 L44.9990774,16.0794811 L44.9990774,6 L45,6 Z M31,26 L10.0018582,37.8956044 L10,48 L30.9981418,36.1025641 L31,26 L31,26 Z M23,42 L10.0018582,49.1671822 L10,59 L22.9981418,51.8328178 L23,42 Z M0.00369079352,21 L9,26.0525841 L8.9972319,36 L3.41060513e-13,30.9483173 L0.00369079352,21 Z M0.00373599004,33 L9,38.0117668 L8.99626401,48 L3.41060513e-13,42.9891383 L0.00373599004,33 Z M0.00373443983,44 L9,49.1221824 L8.99626556,60 L3.41060513e-13,54.8778176 L0.00373443983,44 Z M19.7872758,77 L11,71.8907585 L45.2127242,52 L54,57.1092415 L19.7872758,77 Z M10,71 L44.999076,51.088706 L45,41 L10.000924,60.911294 L10,71 Z M24,51 L44.9990709,39.1025641 L45,29 L24.0018582,40.8956044 L24,51 L24,51 Z M32,35 L44.9981418,27.8328178 L45,18 L32.0018582,25.1671822 L32,35 Z M54.9963092,56 L46,50.9474159 L46.0027681,41 L55,46.0525841 L54.9963092,56 Z M54.9962644,44 L46,38.9882332 L46.0037356,29 L55,34.0108617 L54.9962644,44 Z M54.9962656,32.9990638 L46,27.8145808 L46.0037344,17 L55,22.1854192 L54.9962656,33 L54.9962656,32.9990638 Z" id="Shape"></path>
            </g>
        </g>
    </g>
</svg>
